!! Isochronous pitch passage.
!! Bass-line.
!! From Mozart, Requiem, Domine Jesu, measure 21ff.
!! Basses
!! 4/4 meter
**kern	**metpos
*M4/4	*M4/4
*tb16	*tb16
=21	=21
16GG	1
16BBn	5
16D	4
16G	5
16E-	3
16G	5
16C	4
16E-	5
16Fn	2
16A-	5
16E-	4
16c	5
16D	3
16F	5
16BB-	4
16D	5
=22	=22
16E-	1
16G	5
16D	4
16B-	5
16C	3
16E-	5
16AAn	4
16C	5
16D	2
16F	5
16C	4
16A-	5
16BBn	3
16D	5
16GG	4
16BB	5
=23	=23
16C	1
16E-	5
16G	4
16F	5
16En	3
16G	5
16C	4
16E	5
16F	2
16An	5
16D	4
16F	5
16G	3
16B-	5
16F	4
16d	5
=24	=24
16En	1
16G	5
16C	4
16E	5
16F	3
16A	5
16E	4
16c	5
16D	2
16F	5
16BB-	4
16D	5
16E	3
16G	5
16C	4
16E	5
=25	=25
16F	1
16A	5
16d	4
16c	5
16B-	3
16d	5
16A	4
16f	5
16G	2
16B-	5
16F	4
16d	5
16En	3
16G	5
16D	4
16B-	5
=26	=26
16C#	1
16En	5
16AA	4
16C#	5
16D	3
16F	5
16Cn	4
16A	5
16BBn	2
16D	5
16GG	4
16BB	5
16C#	3
16E	5
16AA	4
16C#	5
=27	=27
16D	1
16F	5
16A	4
16c#	5
16d	3
16A	5
16F	4
16D	5
16E-	2
16G	5
16B-	4
16d	5
16cn	3
16G	5
16E-	4
16C	5
=28	=28
16D	1
16F	5
16A	4
16c	5
16B-	3
16F	5
16D	4
16BB-	5
16C	2
16E-	5
16G	4
16B-	5
16A	3
16F#	5
16E-	4
16C	5
=29	=29
16BB-	1
16GG	5
16BB-	4
16C	5
16D	3
16En	5
16F#	4
16D	5
16G	2
16A	5
16B-	4
16c	5
16d	3
16en	5
16f#	4
16d	5
=30	=30
16g	1
16d	5
16B-	4
16G	5
16d	3
16r	5
16r	4
16r	5
16r	2
16r	5
16r	4
16r	5
16r	3
16r	5
16r	4
16r	5
=31	=31
*-	*-
